X: 2
T: The Air Tune
R: reel
M: 4/4
L: 1/8
K: Dmaj
Affe efed | f/2g/2a de efed | Beed fded | BA2A BAFG |
Fffe efed | f/2g/2a de fg/2f/2 ed | dBBe dA B/2c/2d |1 F2GE D4 :|2 F2GE D efg ||
|a2ga fgef | edcd FADA | Beed fded | BA A/2A/2A BAFG |
a2ga fgef | edcd FA D/2E/2F | GBBA B/2c/2d BA |1 Affe defg :|2 Affe d4||


Tune 2833	Setting 26977

